assets/sonr-icons/heart-rate.svg

<svg xmlns="http://www.w3.org/2000/svg" width="24" height="24" fill="none" viewBox="0 0 24 24"><path fill="#000" d="M22 8.99998C22 9.54998 21.962 10.079 21.893 10.586C21.86 10.826 21.651 11 21.408 11H17.159L15.918 8.10598C15.76 7.73898 15.399 7.49998 14.999 7.49998C14.599 7.49998 14.238 7.73898 14.08 8.10598L11.999 12.962L11.418 11.607C11.26 11.24 10.899 11.001 10.499 11.001H2.59102C2.34902 11.001 2.14002 10.827 2.10602 10.587C2.03602 10.08 1.99902 9.55098 1.99902 9.00098C1.99902 5.68698 4.68502 3.00098 7.99902 3.00098C9.53602 3.00098 10.937 3.57798 11.999 4.52898C13.06 3.57898 14.462 3.00098 15.999 3.00098C19.313 3.00098 21.999 5.68698 21.999 9.00098L22 8.99998ZM3.46002 13C3.10902 13 2.86802 13.353 3.01702 13.671C4.98102 17.879 9.26302 20.052 11.116 20.825C11.685 21.063 12.314 21.063 12.884 20.825C14.737 20.052 19.02 17.88 20.983 13.671C21.131 13.353 20.891 13 20.54 13H16.5C16.1 13 15.739 12.761 15.581 12.394L15 11.039L12.919 15.895C12.761 16.262 12.4 16.501 12 16.501C11.6 16.501 11.239 16.262 11.081 15.895L9.84002 13.001H3.45902L3.46002 13Z"/></svg>

<svg xmlns="http://www.w3.org/2000/svg" width="24" height="24" fill="none"><path fill="currentColor" d="M22 9q-.002.825-.107 1.586a.485.485 0 0 1-.485.414h-4.249l-1.241-2.894a1.001 1.001 0 0 0-1.838 0l-2.081 4.856-.581-1.355a1 1 0 0 0-.919-.606H2.591a.486.486 0 0 1-.485-.414 12 12 0 0 1-.107-1.586 6 6 0 0 1 10-4.472 6 6 0 0 1 10 4.472zM3.46 13c-.351 0-.592.353-.443.671 1.964 4.208 6.246 6.381 8.099 7.154a2.28 2.28 0 0 0 1.768 0c1.853-.773 6.136-2.945 8.099-7.154A.475.475 0 0 0 20.54 13H16.5c-.4 0-.761-.239-.919-.606L15 11.039l-2.081 4.856a1.001 1.001 0 0 1-1.838 0L9.84 13.001z"/></svg>
